assets/blocks/user-controls/img/account.svg

<svg width="20" height="20" viewBox="0 0 20 20" fill="none" xmlns="http://www.w3.org/2000/svg">
<path d="M18.3372 18.7474H1.66341C1.55174 18.7474 1.44465 18.703 1.36569 18.624C1.28673 18.5451 1.24246 18.438 1.24246 18.3263C1.25299 18.1158 1.31615 16.2526 2.29509 15.2632C2.75825 14.8 3.70554 14.3158 5.10554 13.6105C6.60027 12.8632 7.43194 12.4211 7.82141 12.0526L8.66344 11.2526L7.92665 10.3579C7.04667 9.36562 6.45652 8.15046 6.22075 6.84533C5.98497 5.54019 6.11261 4.19534 6.58978 2.95789C7.16873 1.82105 8.30556 1.25263 10.0003 1.25263C11.6845 1.25263 12.8424 1.82105 13.4108 2.95789C13.888 4.19534 14.0156 5.54019 13.7799 6.84533C13.5441 8.15046 12.9539 9.36562 12.074 10.3579L11.3372 11.2632L12.1792 12.0526C12.5687 12.4211 13.4003 12.8632 14.8951 13.6105C15.8994 14.0377 16.844 14.5932 17.7055 15.2632C18.5055 16.0632 18.7371 17.5684 18.7581 18.3263C18.7581 18.438 18.7139 18.5451 18.6349 18.624C18.5559 18.703 18.4489 18.7474 18.3372 18.7474ZM15.453 12.4947C14.6635 12.0947 13.3582 11.4421 13.0424 11.1474C14.3687 9.51579 15.1477 7.67369 15.1477 6.06316C15.1477 4.96842 15.1477 3.61053 14.5267 2.4C13.9793 1.30526 12.7371 0 10.0003 0C7.26346 0 6.0213 1.30526 5.47393 2.4C4.86341 3.61053 4.86345 4.96842 4.86345 6.06316C4.86345 7.67369 5.63186 9.51579 6.95818 11.1474C6.64239 11.4421 5.33709 12.0947 4.54761 12.4947C2.98972 13.2737 2.01079 13.7895 1.41079 14.379C0.105527 15.6842 0.010826 17.8842 0.00029969 18.3053C-0.00389826 18.5263 0.0360442 18.746 0.117744 18.9514C0.199444 19.1569 0.321258 19.344 0.476117 19.5018C0.630975 19.6596 0.815781 19.7849 1.01965 19.8704C1.22352 19.956 1.44232 20 1.66341 20H18.3372C18.557 19.9986 18.7743 19.954 18.9768 19.8686C19.1794 19.7832 19.3631 19.6588 19.5175 19.5024C19.672 19.346 19.7941 19.1607 19.8769 18.9571C19.9598 18.7535 20.0017 18.5356 20.0003 18.3158C20.0003 17.8842 19.8951 15.6842 18.5898 14.379C18.0003 13.7895 17.0109 13.2737 15.453 12.4842V12.4947Z" fill="black"/>
</svg>

<svg width="20" height="20" fill="none" xmlns="http://www.w3.org/2000/svg"><path d="M18.337 18.747H1.663a.42.42 0 01-.42-.42c.01-.211.073-2.074 1.052-3.064.463-.463 1.41-.947 2.81-1.652 1.495-.748 2.327-1.19 2.716-1.558l.842-.8-.736-.895a7.232 7.232 0 01-1.337-7.4C7.169 1.82 8.306 1.253 10 1.253c1.684 0 2.842.568 3.41 1.705a7.232 7.232 0 01-1.336 7.4l-.737.905.842.79c.39.368 1.221.81 2.716 1.557 1.004.428 1.949.983 2.81 1.653.8.8 1.032 2.305 1.053 3.063a.42.42 0 01-.42.421zm-2.884-6.252c-.79-.4-2.095-1.053-2.41-1.348 1.326-1.631 2.105-3.473 2.105-5.084 0-1.095 0-2.452-.621-3.663C13.979 1.305 12.737 0 10 0S6.021 1.305 5.474 2.4c-.61 1.21-.61 2.568-.61 3.663 0 1.61.768 3.453 2.094 5.084-.316.295-1.62.948-2.41 1.348-1.558.779-2.537 1.295-3.137 1.884C.106 15.684.01 17.884 0 18.305A1.663 1.663 0 001.662 20h16.674A1.673 1.673 0 0020 18.316c0-.432-.105-2.632-1.41-3.937-.59-.59-1.58-1.105-3.137-1.895v.01z" fill="#000"/></svg>
